X: 919
T: the Mountains of Kerry
R: hornpipe
%S: s:4 b:16(4+4+4+4)
B: Francis O'Neill: "The Dance Music of Ireland" (1907) #919
Z: Frank Nordberg - http://www.musicaviva.com
F: http://www.musicaviva.com/abc/tunes/ireland/oneill-1001/0919/oneill-1001-0919-1.abc
M: C|
L: 1/8
K: G
"^A"|: G2gd edBA | G2gd edB [1,3 G | DGBG AGBG | DGBd cBAB :|
|[2,4 d \
| gfgd ecAF | G2G2G2 z2 "^B":: B3c d2d2 | cBcd e2e2 | A3B cBcA |
| Ggfa g2g2 || dBdg eceg | fdfa gfge | dBdg ecAF | G2G2G2 z2 :|
